!!!!SEGMENT: pl-kk--kk-i-288--001_anonim--spiritus-domini.krn
!!!cenid: 16xx:1093
!!!COM: Anonim
!!!COM-rismid: pe30004985
!!!CDT:
!!!CNT:
!!!OTL: Spiritus Domini
!!!PDT:
!!!AGN: Sacred
!!!SMS-siglum: PL-Kk
!!!SMS-shelfmark: Kk.I.288
!!!SMS-shelfwork: 001 W
!!!SMS-variant:
!!!SMS-altvar:
!!!NIFC-rismid: 1001147284
!!!URL-scan: http://repozytorium.nifc.pl/skany/pl-kk-nut--i-288
!!!ONB-nifc: UWAGA: utwory w zbiorze: 1. Spiritus Domini, 2. Alleluia ave virgo Maria, 3. Venit caeli nuntius, 4. Factus est repente
!!!AIN: 1 alto 1 bass 2 tenor 1 vox
!!!key:
**kern	**text	**kern	**text	**kern	**text	**kern	**text	**kern	**text
*part5	*part5	*part4	*part4	*part3	*part3	*part2	*part2	*part1	*part1
*staff5	*staff5	*staff4	*staff4	*staff3	*staff3	*staff2	*staff2	*staff1	*staff1
*group1	*	*group1	*	*group1	*	*group1	*	*group1	*
*Ibass	*	*Itenor	*	*Itenor	*	*Ialto	*	*Ivox	*
*I"[Bassus]	*	*I"[Tenor II]	*	*I"[Tenor I]	*	*I"[Altus]	*	*I"[Cantus]	*
*I'[B]	*	*I'[T II]	*	*I'[T I]	*	*I'[A]	*	*I'[S]	*
*clefF4	*	*clefC4	*	*clefC4	*	*clefC3	*	*clefC1	*
*k[]	*	*k[]	*	*k[]	*	*k[]	*	*k[]	*
*C:	*	*C:	*	*C:	*	*C:	*	*C:	*
*M2/1	*	*M2/1	*	*M2/1	*	*M2/1	*	*M2/1	*
*met(C|)	*	*met(C|)	*	*met(C)	*	*met(C)	*	*met(C)	*
*	*	*	*	*all\right	*	*all\right	*	*all\right	*
=1-	=1-	=1-	=1-	=1-	=1-	=1-	=1-	=1-	=1-
0rD	.	1D	Spi-	0rA	.	1rc	.	00r	.
*	*	*	*	*	*	*lig	*	*	*
.	.	1F	.	.	.	1A	Spi-	.	.
=2-	=2-	=2-	=2-	=2-	=2-	=2-	=2-	=2-	=2-
*	*	*	*	*	*	*2\right	*	*	*
*	*	*lig	*	*	*	*col	*	*	*
1rD	.	1A	-ri-	1rA	.	2.c\	.	.	.
*	*	*	*	*	*	*Xlig	*	*	*
.	.	.	.	.	.	4d\	-ri-	.	.
*	*	*	*	*	*	*Xcol	*	*	*
0GG	Spi-	1G	.	2rF	.	2e\	.	.	.
*	*	*	*	*lig	*	*	*	*	*
.	.	.	.	1D/	Spi-	4d\	.	.	.
.	.	.	.	.	.	4c\	.	.	.
*	*	*Xlig	*	*	*	*	*	*	*
=3-	=3-	=3-	=3-	=3-	=3-	=3-	=3-	=3-	=3-
.	.	1G	-t(us)	.	.	1B	.	2.d/	Spi-
.	.	.	.	1G	.	.	.	.	.
*	*	*	*	*Xlig	*	*	*	*	*
.	.	.	.	.	.	.	.	4e/	.
*lig	*	*	*	*	*	*	*	*	*
1D	-ri-	1A	Do-	.	.	2A/	-tus	4f/	.
.	.	.	.	.	.	.	.	4g/	.
*	*	*	*	*	*	*	*	*2\right	*
.	.	.	.	2F/	-ri-	1d\	Do-	2.a\	.
=4-	=4-	=4-	=4-	=4-	=4-	=4-	=4-	=4-	=4-
1E	.	1G	.	1G	-tus	.	.	.	.
.	.	.	.	.	.	.	.	4g\	.
.	.	.	.	.	.	2c/	.	1g	-ri-
*Xlig	*	*lig	*	*2\right	*	*	*	*	*
1D	-tus	1A	.	2r	.	2.d\	.	.	.
.	.	.	.	2d\	Spi-	.	.	2f/	.
.	.	.	.	.	.	4c/	.	.	.
=5-	=5-	=5-	=5-	=5-	=5-	=5-	=5-	=5-	=5-
1E	Do-	1G	.	2c\	-ri-	2B/	.	1g	-tus
.	.	.	.	2c\	-tus	4A/	-mi-	.	.
.	.	.	.	.	.	4G/	.	.	.
*	*	*Xlig	*	*	*	*	*	*	*
*	*	*lig	*	*	*	*	*	*	*
1D	-mi-	1F	-mi-	1.d	Do-	1A	-ni	2r	.
.	.	.	.	.	.	.	.	2a\	Spi-
=6-	=6-	=6-	=6-	=6-	=6-	=6-	=6-	=6-	=6-
1GG	-ni	1G	.	.	.	1rc	.	2b\	-ri-
.	.	.	.	2d\	-mi-	.	.	2g\	-tus
*	*	*Xlig	*	*	*	*	*	*	*
*	*	*lig	*	*	*	*lig	*	*	*
1rD	.	1G	-ni	2d\	-ni	1B-X	re-	2b-X\	Do-
.	.	.	.	1B-X\	Do-	.	.	2b-\	-mi-
=7-	=7-	=7-	=7-	=7-	=7-	=7-	=7-	=7-	=7-
*lig	*	*	*	*	*	*	*	*	*
1BB-X	re-	1F,<	.	.	.	1d	.	1f	-ni
.	.	.	.	2B-yX\	-mi-	.	.	.	.
*	*	*Xlig	*	*	*	*Xlig	*	*	*
*	*	*lig	*	*	*	*	*	*	*
1D	.	1F	re-	2A/	-ni	2.f\	-ple-	2r	.
*	*	*	*	*	*	*	*	*lig	*
.	.	.	.	2.D/	re-	.	.	1f/	re-
.	.	.	.	.	.	4e\	.	.	.
*Xlig	*	*	*	*	*	*	*	*	*
=8-	=8-	=8-	=8-	=8-	=8-	=8-	=8-	=8-	=8-
1F	-ple-	1A	.	.	.	2d\	-vit	.	.
.	.	.	.	4E/	.	.	.	.	.
.	.	.	.	4F/	.	2c/	.	1a\	.
.	.	.	.	4G/	.	.	.	.	.
*	*	*Xlig	*	*	*	*	*	*Xlig	*
*	*	*lig	*	*	*	*	*	*	*
1F	-vit	1c	-ple-	1A	.	2r	.	.	.
.	.	.	.	.	.	2c/	re-	1cc\	-ple-
=9-	=9-	=9-	=9-	=9-	=9-	=9-	=9-	=9-	=9-
1r	.	1d	.	2G/	-ple-	1g	-ple-	.	.
.	.	.	.	1G	-vit	.	.	2bny\	.
*	*	*Xlig	*	*	*	*	*	*	*
!	!	!	!	!	!	!LO:LB:g=original	!	!	!
1C	re-	1c	-vit	.	.	2e\	-vit	1cc	-vit
.	.	.	.	1c\	.	2e\	or-	.	.
=10-	=10-	=10-	=10-	=10-	=10-	=10-	=10-	=10-	=10-
2F\	-ple-	1d	or-	.	.	2f\	-bem	2rf	.
2G\	-vit	.	.	4Bny\	.	2d\	ter-	1g	or-
.	.	.	.	4A\	.	.	.	.	.
2E/	or-	1c	-b(em)	2G/	.	1e	-ra-	.	.
2C/	-b(em)	.	.	2c,<\	.	.	.	2g\	-bem
=11-	=11-	=11-	=11-	=11-	=11-	=11-	=11-	=11-	=11-
1F	ter-	1c	ter-	2c\	or-	1A	-rum	2g\	ter-
.	.	.	.	2A/	-bem	.	.	1cc	-ra-
!	!	!	!	!LO:LB:g=original	!	!	!	!	!
0E	-r(um)	1G	-ra-	2e\	ter-	1rc	.	.	.
.	.	.	.	4d\	.	.	.	4b\	.
.	.	.	.	4c\	.	.	.	4a\	.
!	!	!	!	!	!	!	!	!LO:LB:g=original	!
=12-	=12-	=12-	=12-	=12-	=12-	=12-	=12-	=12-	=12-
*	*	*lig	*	*	*	*	*	*	*
.	.	1B	-r(um)	1B	-ra-	2r	.	4g\	.
.	.	.	.	.	.	.	.	2a\	.
.	.	.	.	.	.	2e\	Al-	.	.
.	.	.	.	.	.	.	.	4g\	.
0AA	.	1c	.	1A	-rum	2e\	-le-	0a	-rum
.	.	.	.	.	.	2e\	-lu-	.	.
*	*	*Xlig	*	*	*	*	*	*	*
!	!	!LO:LB:g=original	!	!	!	!	!	!	!
=13-	=13-	=13-	=13-	=13-	=13-	=13-	=13-	=13-	=13-
.	.	1A	al-	1e	Al-	2c\	-ia	.	.
*	*	*	*	*	*	*	*ij	*	*
.	.	.	.	.	.	1d	Al-	.	.
*	*	*lig	*	*	*	*	*	*	*
1rD	.	1A	-le-	2e\	-le-	.	.	2r	.
.	.	.	.	2e\	-lu-	2c\	-le-	2a\	Al-
=14-	=14-	=14-	=14-	=14-	=14-	=14-	=14-	=14-	=14-
1D	al-	1F	.	2A/	-ia	2d\	-lu-	2a\	-le-
*	*	*	*	*	*ij	*	*	*	*
.	.	.	.	2.d\	Al-	2f\	-ia	2a\	-lu-
*	*	*Xlig	*	*	*	*	*Xij	*	*
*	*	*lig	*	*	*	*	*	*	*
2D/	-le-	1A	.	.	.	2f\	Al-	2e/	-ia
.	.	.	.	4c\	.	.	.	.	.
*	*	*	*	*	*	*	*	*	*ij
2D/	-lu-	.	.	2A/	-le-	2f\	-le-	2dd\	Al-
=15-	=15-	=15-	=15-	=15-	=15-	=15-	=15-	=15-	=15-
2GG/	-ia	1G	.	2.B\	-lu-	4d\	-lu-	2.dd\	-le-
.	.	.	.	.	.	4c\	.	.	.
2G\	.	.	.	.	.	4Bny/	.	.	.
.	.	.	.	4c\	.	4A/	.	4cc\	.
*	*ij	*Xlig	*	*	*	*	*	*	*
!LO:LB:g=original	!	!	!	!	!	!	!	!	!
4G\	al-	1G	-lu-	2d\	ia	2G/	-ia	4b\	.
4F\	.	.	.	.	.	.	.	4a\	.
*	*	*	*	*	*Xij	*	*ij	*	*
4E\	.	.	.	4rc	.	2e\	Al-	1g\	.
4D\	.	.	.	4B\	Al-	.	.	.	.
=16-	=16-	=16-	=16-	=16-	=16-	=16-	=16-	=16-	=16-
*	*	*lig	*	*	*	*	*	*	*
2C/	-le-	1A	.	2c\	-le-	2e\	-le-	.	.
2D/	-lu-	.	.	2A\	-lu-	2.d\	-lu-	2f/	-lu-
1GG	-ia	1G	.	2B\	-ia	.	.	1g	-ia
.	.	.	.	.	.	4c\	.	.	.
*	*Xij	*	*	*	*ij	*	*	*	*
.	.	.	.	2G/	Al-	4d\	.	.	.
.	.	.	.	.	.	4B\	.	.	.
*	*	*Xlig	*	*	*	*	*	*	*Xij
=17-	=17-	=17-	=17-	=17-	=17-	=17-	=17-	=17-	=17-
0rD	.	1G	-ia	2C/	-le-	4c\	.	1ra	.
.	.	.	.	.	.	4B\	.	.	.
!	!	!	!	!	!	!LO:LB:g=original	!	!	!
.	.	.	.	2E/	-lu-	4A/	.	.	.
.	.	.	.	.	.	4G/	.	.	.
*	*	*lig	*	*	*	*	*	*	*
.	.	1F	et	0D	-ia	1A	-ia	1a	et
*	*	*	*	*	*Xij	*	*Xij	*	*
=18-	=18-	=18-	=18-	=18-	=18-	=18-	=18-	=18-	=18-
1GG	et	1G	.	.	.	2rA	.	1b	hoc
.	.	.	.	.	.	2d\	et	.	.
*	*	*Xlig	*	*	*	*	*	*	*
1C	hoc	1G	hoc	2rF	.	1e	hoc	2rf	.
.	.	.	.	1E/	et	.	.	2g/	et
=19-	=19-	=19-	=19-	=19-	=19-	=19-	=19-	=19-	=19-
*	*	*lig	*	*	*	*	*	*	*
2AA/	quod	1A	.	.	.	2e\	quod	1cc	hoc
2.AA/	con-	.	.	2E/	hoc	2.c\	con-	.	.
.	.	1c	.	2A/	quod	.	.	2rf	.
4BBny/	.	.	.	.	.	4d\	.	.	.
4C/	.	.	.	2.G/	con-	4e\	.	1g\	et
4D/	.	.	.	.	.	4f\	.	.	.
*	*	*Xlig	*	*	*	*	*	*	*
=20-	=20-	=20-	=20-	=20-	=20-	=20-	=20-	=20-	=20-
2.E\	.	1G	.	.	.	2g\	.	.	.
.	.	.	.	4F/	.	.	.	.	.
.	.	.	.	4G/	.	2e\	ti-	1cc	hoc
4F\	-ti-	.	.	4A/	.	.	.	.	.
2G\	-net	1G	quod	2B\	.	1d	-net	.	.
*	*ij	*	*	*	*	*	*	*	*
!	!	!	!	!LO:LB:g=original	!	!	!	!	!
2GG/	et	.	.	1G/	-ti-	.	.	2b\	quod
=21-	=21-	=21-	=21-	=21-	=21-	=21-	=21-	=21-	=21-
*	*	*lig	*	*	*	*	*ij	*	*
2C/	hoc	1A	.	.	.	2r	.	2a\	con-
2D/	quod	.	.	2F/	-net	2A/	et	2a\	-ti-
2E\	con-	1c	.	4G/	quod	2.e\	hoc	2g/	-net
.	.	.	.	4E/	.	.	.	.	.
*	*	*	*	*	*	*	*	*	*ij
2C/	-ti-	.	.	1A\	con-	.	.	2e/	et
.	.	.	.	.	.	4e\	quod	.	.
*	*	*Xlig	*	*	*	*	*	*	*
=22-	=22-	=22-	=22-	=22-	=22-	=22-	=22-	=22-	=22-
*	*	*lig	*	*	*	*	*	*	*
2D/	.	1B	con	.	.	2d\	con-	2f/	hoc
2E/	.	.	.	2G/	.	2B/	-ti-	2g/	quod
!	!	!	!	!	!	!	!	!LO:LB:g=original	!
1AA,<	-net	1c	.	2.A/	.	2A/	-net	2e/	con-
*	*	*	*	*	*	*	*Xij	*	*
.	.	.	.	.	.	1e\	et	1a\	.
.	.	.	.	4G/	.	.	.	.	.
*	*	*Xlig	*	*	*	*	*	*	*
=23-	=23-	=23-	=23-	=23-	=23-	=23-	=23-	=23-	=23-
*	*	*lig	*	*	*	*	*	*	*
1D	et	1A	.	1F	-ti-	.	.	.	.
.	.	.	.	.	.	2d\	hoc	4g/	.
.	.	.	.	.	.	.	.	4f/	.
1C	hoc	1c	.	2G/	-net	4e\	quod	1e	-ti-
.	.	.	.	.	.	4f\	.	.	.
*	*	*	*	*	*ij	*	*	*	*
.	.	.	.	2G/	et	1g\	con-	.	.
*	*	*Xlig	*	*	*	*	*	*	*
=24-	=24-	=24-	=24-	=24-	=24-	=24-	=24-	=24-	=24-
*lig	*	*lig	*	*	*	*	*	*	*
1D	quod	1A	.	2d\	hoc	.	.	2d/	-net
*	*	*	*	*	*	*	*	*	*Xij
.	.	.	.	2.d\	quod	2f\	-ti-	4dd\	quod
.	.	.	.	.	.	.	.	4cc\	.
1E	.	1G	.	.	.	1g	-net	4b\	.
.	.	.	.	4c\	con-	.	.	4a\	.
.	.	.	.	4c\	-ti-	.	.	1g\	con-
.	.	.	.	8B\L	.	.	.	.	.
.	.	.	.	8c\J	.	.	.	.	.
*Xlig	*	*Xlig	*	*	*	*	*	*	*
=25-	=25-	=25-	=25-	=25-	=25-	=25-	=25-	=25-	=25-
1D	con-	1A	ti-	1d	-net	2r	.	.	.
.	.	.	.	.	.	1d	o-	4f/	.
.	.	.	.	.	.	.	.	4e/	.
*	*	*lig	*	*	*Xij	*	*	*	*
1D	-ti-	1A	-net	1r	.	.	.	1f#X	-ti-
.	.	.	.	.	.	2d\	-mni-	.	.
!LO:LB:g=original	!	!	!	!	!	!LO:LB:g=original	!	!	!
=26-	=26-	=26-	=26-	=26-	=26-	=26-	=26-	=26-	=26-
1GG	-net	1G	.	2rc	.	1d	-a	1g	-net
.	.	.	.	1d	o-	.	.	.	.
*lig	*Xij	*Xlig	*	*	*	*	*	*	*
*	*	*lig	*	*	*	*	*ij	*	*
1D	o-	1F	o-	.	.	1.f	o-	1ra	.
.	.	.	.	2d\	-mni-	.	.	.	.
=27-	=27-	=27-	=27-	=27-	=27-	=27-	=27-	=27-	=27-
*	*	*	*	*	*	*	*	*lig	*
1.F	.	1A	.	1.c	-a	.	.	1fny	O-
*Xlig	*	*Xlig	*	*	*	*	*	*	*
.	.	.	.	.	.	2f\	-mni-	.	.
.	.	1c	-mni-	.	.	1f	-a	1a	.
*	*	*	*	*	*	*	*Xij	*Xlig	*
2F\	-mni-	.	.	2A/	Sci-	.	.	.	.
!	!	!LO:LB:g=original	!	!	!	!	!	!	!
=28-	=28-	=28-	=28-	=28-	=28-	=28-	=28-	=28-	=28-
1F	-a	1c,<	-a	2.A/	-en-	1f	Sci-	1.cc	.
.	.	.	.	4B\	.	.	.	.	.
1F	Sci-	1c	Sci-	2c\	.	1f	-en-	.	.
.	.	.	.	4F/	.	.	.	2cc\	-mni-
.	.	.	.	4G/	.	.	.	.	.
=29-	=29-	=29-	=29-	=29-	=29-	=29-	=29-	=29-	=29-
1C	-en-	1c	-en-	4A/	.	1g	-ti-	1cc	-a
.	.	.	.	4B/	.	.	.	.	.
.	.	.	.	1c	.	.	.	.	.
*	*	*lig	*	*	*	*	*	*	*
1G	-ti-	1d	-ti-	.	.	1.g	-am	2rcc	.
.	.	.	.	2B\	-ti	.	.	2dd\	Sci-
!	!	!	!	!LO:LB:g=original	!	!	!	!	!
=30-	=30-	=30-	=30-	=30-	=30-	=30-	=30-	=30-	=30-
1C	-am	1c	.	2c\	a(m)	.	.	2.ee\	-en-
.	.	.	.	2G/	Sci-	2e\	ha-	.	.
.	.	.	.	.	.	.	.	4dd\	.
*	*	*Xlig	*	*	*	*	*	*	*
*	*	*lig	*	*	*	*	*	*	*
1.F	ha-	1c	-am	2.A\	-en-	2.f\	.	4cc\	.
.	.	.	.	.	.	.	.	4b\	.
.	.	.	.	.	.	.	.	1cc\	.
.	.	.	.	4B\	-ti-	4g\	.	.	.
=31-	=31-	=31-	=31-	=31-	=31-	=31-	=31-	=31-	=31-
.	.	1A	.	1c	-am	2a\	.	.	.
2F\	-bet	.	.	.	.	2f\	-bet	4b\	.
.	.	.	.	.	.	.	.	4a\	.
*	*	*Xlig	*	*	*	*	*	*	*
*	*	*lig	*	*	*	*	*	*	*
2E\	Vo-	1c	ha-	2r	.	1g	Vo-	2g\	.
2C/	.	.	.	2.G/	ha-	.	.	1cc\	-ti-
=32-	=32-	=32-	=32-	=32-	=32-	=32-	=32-	=32-	=32-
1G	.	1d	.	.	.	1g	-cis	.	.
.	.	.	.	4A/	.	.	.	.	.
.	.	.	.	2B\	-bet	.	.	2b\	-am
*	*	*Xlig	*	*	*	*	*	*	*
2C/	-cis	1c	-bet	2.c\	vo-	1e	.	2g\	ha-
2.AA/	al-	.	.	.	.	.	.	2a\	-bet
.	.	.	.	4B\	.	.	.	.	.
!	!	!	!	!	!	!	!	!LO:LB:g=original	!
=33-	=33-	=33-	=33-	=33-	=33-	=33-	=33-	=33-	=33-
*	*	*lig	*	*	*	*	*	*	*
.	.	1c	Vo-	1A	.	2r	.	2.e/	Vo-
4BB/	.	.	.	.	.	.	.	.	.
4C/	.	.	.	.	.	1e	ha-	.	.
4D/	.	.	.	.	.	.	.	4f/	.
4E\	.	1B	.	0G	-cis	.	.	4g\	.
4F\	.	.	.	.	.	.	.	4a\	.
2G\	-le-	.	.	.	.	2d\	-bet	2.b\	.
*	*	*Xlig	*	*	*	*	*	*	*
=34-	=34-	=34-	=34-	=34-	=34-	=34-	=34-	=34-	=34-
*lig	*	*	*	*	*	*	*	*	*
1C	-lu-	1c	.	.	.	1e	vo-	.	.
.	.	.	.	.	.	.	.	4a\	.
.	.	.	.	.	.	.	.	1g	.
*	*	*lig	*	*	*	*	*	*	*
1D	.	1A	-cis	1rA	.	1d	-cis	.	.
.	.	.	.	.	.	.	.	2f/	.
*Xlig	*	*	*	*	*	*	*	*	*
=35-	=35-	=35-	=35-	=35-	=35-	=35-	=35-	=35-	=35-
1GG	-ia	1G	.	2r	.	2r	.	2g/	-cis
.	.	.	.	2G/	Al-	2d\	Al-	2b\	Al-
*	*ij	*Xlig	*	*	*	*	*	*	*
2rC	.	1F	al-	2c\	-le-	2.f\	-le-	2cc\	-le-
2D/	al-	.	.	4d\	.	.	.	2a\	-lu-
.	.	.	.	4c\	-lu-	4e\	.	.	.
=36-	=36-	=36-	=36-	=36-	=36-	=36-	=36-	=36-	=36-
*	*	*lig	*	*	*	*	*	*	*
2G\	-le-	1G	-le-	4B\	.	2d\	-lu-	1g	-ia
.	.	.	.	4A\	.	.	.	.	.
2E\	-lu-	.	.	1G	.	2c\	.	.	.
!	!	!	!	!	!	!LO:LB:g=original	!	!	!
1D	-ia	1A	.	.	.	2d\	-ia	2rf	.
*	*	*	*	*	*	*	*ij	*	*ij
.	.	.	.	4F/	.	1f\	Al-	1a\	Al-
.	.	.	.	4E/	.	.	.	.	.
*	*	*Xlig	*	*	*	*	*	*	*
=37-	=37-	=37-	=37-	=37-	=37-	=37-	=37-	=37-	=37-
*	*	*lig	*	*	*	*	*	*	*
2rC	.	1A	-lu-	1D	-ia	.	.	.	.
2D/	al-	.	.	.	.	1d	-le-	2f/	-le-
2BB-X/	-le-	1G	.	1d	Al-	.	.	1b-X	-lu-
!LO:LB:g=original	!	!	!	!	!	!	!	!	!
2GG/	-lu-	.	.	.	.	2B-X/	-lu-	.	.
*	*	*Xlig	*	*	*	*	*	*	*
=38-	=38-	=38-	=38-	=38-	=38-	=38-	=38-	=38-	=38-
*	*	*lig	*	*	*	*	*	*	*
1D	-ia	1F	.	2d\	-le-	2.f\	.	2a\	-ia
.	.	.	.	2d\	-lu-	.	.	2a\	Al-
.	.	.	.	.	.	4e\	.	.	.
!	!	!	!	!LO:SIC:v:s=4B-	!	!	!	!	!
1GG	al-	1G	.	4B\	-ia	4d\	.	1b-X	-le-
.	.	.	.	4A\	.	4c\	.	.	.
.	.	.	.	4G/	.	2d\	.	.	.
.	.	.	.	4F/	.	.	.	.	.
*	*	*Xlig	*	*	*	*	*	*	*
=39-	=39-	=39-	=39-	=39-	=39-	=39-	=39-	=39-	=39-
*	*	*lig	*	*	*ij	*	*	*	*
2C/	-le-	1G	-ia	2E/	Al-	2e\	-ia	2g/	-lu-
*	*	*	*	*	*	*	*Xij	*	*
2C/	-lu-	.	.	2G/	-le-	2e\	Al-	4cc\	.
.	.	.	.	.	.	.	.	4b-yX\	.
2FF,</	-ia	1F	.	2A/	-lu-	1.f	-le-	4a\	.
.	.	.	.	.	.	.	.	4g\	.
*lig	*	*	*	*	*	*	*	*	*
!LO:SIC:v:s=1BB-	!	!	!	!LO:LB:g=original	!	!	!	!	!
1BBny/	al-	.	.	1B-X\	-ia	.	.	4f/	.
.	.	.	.	.	.	.	.	4e/	.
*	*	*Xlig	*	*	*	*	*	*	*
=40-	=40-	=40-	=40-	=40-	=40-	=40-	=40-	=40-	=40-
*	*	*lig	*	*	*	*	*	*	*
.	.	1F	al-	.	.	.	.	2d/	-ia
*	*	*	*	*	*	*	*	*lig	*Xij
1D	.	.	.	4A/	.	2d\	-lu-	1f	Al-
.	.	.	.	4G/	.	.	.	.	.
.	.	1A	.	2.F/	Al-	2d\	-ia	.	.
*Xlig	*	*Xlig	*	*	*	*	*ij	*	*
1F\	-le-	.	.	.	.	2c/	Al-	1a\	.
.	.	.	.	4G/	-le-	.	.	.	.
*	*	*	*	*	*	*	*	*Xlig	*
=41-	=41-	=41-	=41-	=41-	=41-	=41-	=41-	=41-	=41-
.	.	1c	-le-	1A	-lu-	1f	-le-	.	.
2F\	-lu-	.	.	.	.	.	.	2.cc\	-le-
*	*	*lig	*	*	*	*	*	*	*
4C/	.	1c	-lu-	0G	-ia	1e	.	.	.
4D/	.	.	.	.	.	.	.	4bny\	.
!	!	!	!	!	!	!	!	!LO:LB:g=original	!
4E\	.	.	.	.	.	.	.	4g\	.
4F\	.	.	.	.	.	.	.	4a\	.
=42-	=42-	=42-	=42-	=42-	=42-	=42-	=42-	=42-	=42-
2G\	-ia	1B	.	.	.	2d\	.	4b\	.
*	*Xij	*	*	*	*	*	*	*	*
.	.	.	.	.	.	.	.	4a\	.
2GG/	al-	.	.	.	.	2d\	-lu-	4g\	.
.	.	.	.	.	.	.	.	4f\	.
*	*	*Xlig	*	*	*	*	*	*	*
1C	-le-	1c	.	2rF	.	1e	.	4e\	.
.	.	.	.	.	.	.	.	4f\	.
.	.	.	.	2C/	Al-	.	.	1g\	-lu-
!	!	!LO:LB:g=original	!	!	!	!	!	!	!
=43-	=43-	=43-	=43-	=43-	=43-	=43-	=43-	=43-	=43-
*	*	*lig	*	*	*	*	*	*	*
1D	-lu-	1A	-ia	2F/	.	1d	.	.	.
.	.	.	.	1D	-le-	.	.	2f/	.
2GG/	-ia	1G	.	.	.	2Bny/	-ia	2g/	-ia
*	*ij	*	*	*	*	*	*	*	*ij
2G\	al-	.	.	2.E/	.	2B/	Al-	1b\	Al-
*	*	*Xlig	*	*	*	*	*	*	*
=44-	=44-	=44-	=44-	=44-	=44-	=44-	=44-	=44-	=44-
2E\	-le-	1G	al-	.	.	1e	-le-	.	.
.	.	.	.	4F/	.	.	.	.	.
2C/	.	.	.	4G/	.	.	.	1cc	-le-
.	.	.	.	4E/	.	.	.	.	.
*	*	*lig	*	*	*	*	*	*	*
2.F\	.	1A	-le-	4F/	.	1c	-lu-	.	.
.	.	.	.	4G/	.	.	.	.	.
.	.	.	.	1A\	-lu-	.	.	2a\	-lu-
4E\	.	.	.	.	.	.	.	.	.
=45-	=45-	=45-	=45-	=45-	=45-	=45-	=45-	=45-	=45-
4D\	.	1F	.	.	.	2d\	-ia	2a\	-ia
*	*	*	*	*	*	*	*	*	*Xij
4C/	.	.	.	.	.	.	.	.	.
2.D/	.	.	.	2A/	-ia	2f\	Al-	2a\	Al-
*	*	*Xlig	*	*	*	*	*	*	*
*	*	*lig	*	*	*	*	*	*	*
!	!	!	!	!	!	!LO:LB:g=original	!	!	!
.	.	1A	-lu-	2d\	Al-	2f\	-le-	2a\	-le-
4C/	.	.	.	.	.	.	.	.	.
4AA/	.	.	.	2c\	-le-	2.e\	.	2.cc\	-lu-
4BB/	.	.	.	.	.	.	.	.	.
=46-	=46-	=46-	=46-	=46-	=46-	=46-	=46-	=46-	=46-
4C/	.	1G	.	2.e\	-lu-	.	.	.	.
4D/	.	.	.	.	.	4f\	.	4b\	.
4E\	.	.	.	.	.	2g\	.	4g\	.
4F\	.	.	.	8d\L	.	.	.	4a\	.
.	.	.	.	8c\J	.	.	.	.	.
*	*	*Xlig	*	*	*	*	*	*	*
*	*	*lig	*	*	*	*	*	*	*
2G\	-lu-	1G	-ia.	1Bny	-ia	2d\	.	4b\	.
.	.	.	.	.	.	.	.	4cc\	.
2GG/	.	.	.	.	.	1g\	-lu-	1dd\	.
=47-	=47-	=47-	=47-	=47-	=47-	=47-	=47-	=47-	=47-
2D/	-ia	1A	.	2r	.	.	.	.	.
*custos:GG	*	*	*	*	*	*	*	*	*
2D/	al-	.	.	2A/	Al-	2f\	.	2dd\	-ia
*	*	*Xlig	*	*	*	*	*	*	*ij
!LO:LB:g=original	!	!	!	!	!	!	!	!	!
2GG/	.	1G	.	1B	-le-	2g\	-ia	2b\	Al-
2GG/	-le-	.	.	.	.	2d\	Al-	1g\	-le-
=48-	=48-	=48-	=48-	=48-	=48-	=48-	=48-	=48-	=48-
1C	.	[0Gl;;	.	2.c\	-lu-	2e\	-le-	.	.
.	.	.	.	.	.	2.c/	-lu-	2cc\	.
!	!	!	!	!LO:TX:t=P:problem=kreska pseudotaktowa	!	!	!	!	!
.	.	.	.	4d\	-ia	.	.	.	.
1C	-lu-	.	.	1.e	A-	.	.	2g/	.
.	.	.	.	.	.	4d\	.	.	.
.	.	.	.	.	.	4e\	.	1cc\	.
.	.	.	.	.	.	4f\	.	.	.
=49-	=49-	=49-	=49-	=49-	=49-	=49-	=49-	=49-	=49-
[0GGl;;	-ia	0G_	.	.	.	[0gl;<	-ia	.	.
*	*Xij	*	*	*	*	*	*Xij	*	*
.	.	.	.	4d\	-le-	.	.	4b\	-lu-
.	.	.	.	4c\	-lu-	.	.	4a\	.
.	.	.	.	[1dl;;	-ia	.	.	[1bl;;	-ia
*	*	*	*	*	*Xij	*	*	*	*Xij
=50-	=50-	=50-	=50-	=50-	=50-	=50-	=50-	=50-	=50-
0GG]	.	0G]	.	0d]	.	0g]	.	0b]	.
!	!	!	!	!LO:LB:g=original	!	!	!	!LO:LB:g=original	!
=51||	=51||	=51||	=51||	=51||	=51||	=51||	=51||	=51||	=51||
*M2/1	*	*M2/1	*	*M2/1	*	*M2/1	*	*M2/1	*
*met(C|)	*	*met(C|)	*	*met(C)	*	*met(C)	*	*met(C)	*
1rD	.	1G	Ex-	1B	Ex-	1.g	Ex-	0dd	Ex-
1D	Ex-	1A	-ur-	2d\	-ur-	.	.	.	.
.	.	.	.	2d\	-gat	2f\	-ur-	.	.
=52-	=52-	=52-	=52-	=52-	=52-	=52-	=52-	=52-	=52-
*lig	*	*	*	*	*	*	*	*	*
1E	-sur-	1G,<	-gat	1G	DE-	1g	.	1b	-ur-
*	*	*lig	*	*	*	*	*	*	*
1C	.	1G	De-	2.c\	.	2e,<\	-gat	2cc\	-gat
.	.	.	.	.	.	2.g\	De-	2.ee\	DE-
.	.	.	.	4B\	.	.	.	.	.
*Xlig	*	*	*	*	*	*	*	*	*
=53-	=53-	=53-	=53-	=53-	=53-	=53-	=53-	=53-	=53-
*lig	*	*	*	*	*	*	*	*	*
1C	-gat	1c	.	1G	-us	.	.	.	.
.	.	.	.	.	.	4f\	.	4dd\	.
.	.	.	.	.	.	4e\	.	4cc\	.
.	.	.	.	.	.	4d\	.	4b\	.
*	*	*Xlig	*	*	*	*	*	*	*
1.F	.	1c,<	-us	2.A\	et	2c/	-us	1.a	-us
.	.	.	.	.	.	1f\	et	.	.
.	.	.	.	4B\	.	.	.	.	.
*Xlig	*	*	*	*	*	*	*	*	*
=54-	=54-	=54-	=54-	=54-	=54-	=54-	=54-	=54-	=54-
.	.	1c	et	4c\	.	.	.	.	.
.	.	.	.	4d\	.	.	.	.	.
2E\	De-	.	.	2e\	diſ-	2g\	diſ-	2g,</	.
1F	-(us)	1c	dy-	2c\	-si-	2a\	-si-	2f/	et
!	!	!	!	!	!	!LO:LB:g=original	!	!	!
.	.	.	.	2A\	-pen-	1f\	-pen-	2a\	diſ-
=55-	=55-	=55-	=55-	=55-	=55-	=55-	=55-	=55-	=55-
1C	et	1c	-sy-	2c\	-tur	.	.	2g/	-si-
.	.	.	.	2G/	i-	4e\	.	1g	-pen-
.	.	.	.	.	.	4d\	.	.	.
1C	dyſ-	1c	-pen-	2G/	-ni-	1e	.	.	.
.	.	.	.	2G/	-mi-	.	.	1cc\	-tur
=56-	=56-	=56-	=56-	=56-	=56-	=56-	=56-	=56-	=56-
2F\	-si-	1c	-tur	4A\	-ci	1f	-tur	.	.
.	.	.	.	4G\	.	.	.	.	.
2F\	-pen-	.	.	4A\	e-	.	.	2.a\	-i-
.	.	.	.	4B\	.	.	.	.	.
*	*	*custos:c	*	*	*	*	*	*	*
1F	-tur	1c,<	i-	2c\	.	2f\	i-	.	.
.	.	.	.	.	.	.	.	4g\	.
.	.	.	.	2A/	.	4c\	-ni-	4a\	.
.	.	.	.	.	.	4d\	.	4b\	.
!	!	!LO:LB:g=original	!	!	!	!	!	!	!
=57-	=57-	=57-	=57-	=57-	=57-	=57-	=57-	=57-	=57-
*	*	*lig	*	*	*	*	*	*	*
4C/	i-	1c	-ni-	1G	-ius	4e\	.	2cc\	ni-
4D\	.	.	.	.	.	4f\	.	.	.
4E\	-ni-	.	.	.	.	2g\	-mi-	(4g\	-mi-
4F\	.	.	.	.	.	.	.	4a\)	.
*lig	*	*	*	*	*	*	*	*	*
1G	-mi-	1B	.	1rA	.	2d\	-ci	(4b\	-ci
.	.	.	.	.	.	.	.	4cc\)	.
.	.	.	.	.	.	1g\	e-	2dd\	e-
*	*	*Xlig	*	*	*	*	*	*	*
=58-	=58-	=58-	=58-	=58-	=58-	=58-	=58-	=58-	=58-
*	*	*lig	*	*	*	*	*	*	*
1A	.	1c	-mi-	2r	.	.	.	2a\	.
.	.	.	.	2A\	i-	2f\	.	1cc	.
*Xlig	*	*	*	*	*	*	*	*	*
1G	-ci	1d	.	2B\	-ni-	2g\	-ius	.	.
.	.	.	.	2G/	-mi-	4d\	et	2b,<\	-ius
.	.	.	.	.	.	4e\	.	.	.
*	*	*Xlig	*	*	*	*	*	*	*
=59-	=59-	=59-	=59-	=59-	=59-	=59-	=59-	=59-	=59-
4D\	e-	1d	-ci	4A\	-ci	4f\	.	2a\	et
4E\	.	.	.	4G\	.	4g\	.	.	.
4F\	.	.	.	4A\	.	2a\	.	2.a\	fu-
4G\	.	.	.	4B\	.	.	.	.	.
*	*	*lig	*	*	*	*	*	*	*
!	!	!	!	!LO:LB:g=original	!	!	!	!	!
1A	.	1c	e-	2c\	e-	2e\	-fu-	.	.
.	.	.	.	.	.	.	.	4b\	.
!	!	!	!	!	!	!	!	!LO:LB:g=original	!
.	.	.	.	2A\	.	2f\	-gi-	1cc\	.
=60-	=60-	=60-	=60-	=60-	=60-	=60-	=60-	=60-	=60-
1G	.	1d	.	1B	.	1g	-ant	.	.
.	.	.	.	.	.	.	.	2b\	-gi-
*	*	*Xlig	*	*	*	*	*	*	*
!LO:LB:g=original	!	!	!	!	!	!	!	!	!
1C	-jus	1c	-i(us)	1G	-ius	1e	qui	1cc	-ant
=61-	=61-	=61-	=61-	=61-	=61-	=61-	=61-	=61-	=61-
*	*	*lig	*	*	*	*	*	*	*
2r	.	1c	et	2A/	et	2e\	o-	1a	et
*lig	*	*	*	*	*	*	*	*	*
1F	et	.	.	2.F/	fu-	1f	-de-	.	.
.	.	1A	.	.	.	.	.	2cc\	fu-
.	.	.	.	4G/	gi-	.	.	.	.
1D\	.	.	.	2A/	-ant	1f\	-runt	1dd\	-gi-
*Xlig	*	*Xlig	*	*	*	*	*	*	*
=62-	=62-	=62-	=62-	=62-	=62-	=62-	=62-	=62-	=62-
*	*	*lig	*	*	*	*	*	*	*
.	.	1A	fu-	2D/	qui	.	.	.	.
1F	fu-	.	.	2A/	o-	2c/	.	1cc	-ant
.	.	1c	.	2A/	-de-	2f\	E-	.	.
2F\	-gi-	.	.	2A/	-runt	2f\	-um	2a\	qui
*	*	*Xlig	*	*	*	*	*	*	*
=63-	=63-	=63-	=63-	=63-	=63-	=63-	=63-	=63-	=63-
2C/	-ant	1c	-gi-	1G	.	1e	.	2cc\	o-
2C/	e-	.	.	.	.	.	.	2g\	-de-
1F	.	1c,<	-ant	2rF	.	2r	.	1a	-runt
.	.	.	.	2F/	a	1f\	a	.	.
=64-	=64-	=64-	=64-	=64-	=64-	=64-	=64-	=64-	=64-
1C	-um	1c	qui	1G	fa-	.	.	2r	.
.	.	.	.	.	.	2e\	.	2g\	a
!	!	!	!	!	!	!LO:LB:g=original	!	!	!
2rC	.	1c	o-	2F/	-ci-	2f\	fa-	2a\	fa-
2C/	qui	.	.	2E/	-e	2g\	-ci-	2f/	-ci-
=65-	=65-	=65-	=65-	=65-	=65-	=65-	=65-	=65-	=65-
2F\	o-	1c	-de-	2F/	ē-	1f	-e	2a\	-e
2F\	-de-	.	.	1A	-ius	.	.	4f/	e-
.	.	.	.	.	.	.	.	4g/	.
1F	-runt	1c	-runt	.	.	2f\	e-	4a\	.
.	.	.	.	.	.	.	.	4b\	.
.	.	.	.	2A/	a	2f\	-ius	4cc\	.
.	.	.	.	.	.	.	.	4dd\	.
=66-	=66-	=66-	=66-	=66-	=66-	=66-	=66-	=66-	=66-
*	*	*lig	*	*	*	*	*	*	*
4C/	e-	1c	e-	2.G/	fa-	4e\	a	1ee	.
4D\	.	.	.	.	.	4f\	.	.	.
4E\	.	.	.	.	.	4g\	.	.	.
4F\	.	.	.	4A/	ci-	4a\	.	.	.
2.G\	-um	1B	-um	4B\	-e	1.g	fa-	1dd	-ius
.	.	.	.	4c\	.	.	.	.	.
.	.	.	.	1d\	e-	.	.	.	.
4F\	a-	.	.	.	.	.	.	.	.
*	*	*Xlig	*	*	*	*	*	*	*
=67-	=67-	=67-	=67-	=67-	=67-	=67-	=67-	=67-	=67-
*	*	*lig	*	*	*	*	*	*	*
1E	-fa-	1G	a	.	.	.	.	2r	.
.	.	.	.	2c\	.	2g\	-ci-	2g/	a
1D	-ci-	1A	.	1d	-ius	1f	-e	1dd	fa-
*	*	*Xlig	*	*	*	*	*	*	*
=68-	=68-	=68-	=68-	=68-	=68-	=68-	=68-	=68-	=68-
*	*	*lig	*	*	*	*	*	*	*
2.C/	-e	1c	fa-	0G	e-	2e\	e-	2.ee\	-ci-
.	.	.	.	.	.	2c/	-ius	.	.
4BB/	.	.	.	.	.	.	.	4dd\	-e
*	*	*	*	*	*	*	*ij	*	*
4GG/	.	1B	-ci-	.	.	2.d\	fa-	4b\	e-
4AA/	.	.	.	.	.	.	.	4cc\	.
4BB/	.	.	.	.	.	.	.	1dd\	.
4C/	.	.	.	.	.	4e\	-ci-	.	.
*	*	*Xlig	*	*	*	*	*	*	*
=69-	=69-	=69-	=69-	=69-	=69-	=69-	=69-	=69-	=69-
2D/	.	1A	-e	2F/	.	2f\	-e	.	.
2C/	e-	.	.	2E/	.	1g	e-	2ee\	.
1D	.	1A	e-	1F	.	.	.	1dd	.
.	.	.	.	.	.	2f\	.	.	.
=70-	=70-	=70-	=70-	=70-	=70-	=70-	=70-	=70-	=70-
0GGl;;	-jus	0Gl;;	-jus	0Dl;;	-ius	0gl;;	-ius	0bl;;	-ius
*	*	*	*	*	*	*	*Xij	*	*
!	!	!LO:LB:g=original	!	!LO:LB:g=original	!	!	!	!LO:LB:g=original	!
=71||	=71||	=71||	=71||	=71||	=71||	=71||	=71||	=71||	=71||
*	*	*M2/1	*	*M2/1	*	*M2/1	*	*M2/1	*
*	*	*met(C|)	*	*met(C)	*	*met(C)	*	*met(C)	*
0rD	.	1G	Glo-	1rA	.	1.g	Glo-	1ra	.
.	.	1A	ri-	1c	Glo-	.	.	1.cc	Glo-
.	.	.	.	.	.	2f\	.	.	.
=72-	=72-	=72-	=72-	=72-	=72-	=72-	=72-	=72-	=72-
*	*	*lig	*	*	*	*	*	*	*
1rD	.	1G	-a	1d	-ri-	1g	-ri-	.	.
.	.	.	.	.	.	.	.	2b\	-ri-
!LO:LB:g=original	!	!	!	!	!	!LO:SIC:v:s=1f	!	!	!
1.F	Glo-	1c	.	4c\	-a	1e	-a	2.cc\	-a
.	.	.	.	4B\	.	.	.	.	.
.	.	.	.	4A\	.	.	.	.	.
.	.	.	.	4G/	.	.	.	4b\	.
*	*	*Xlig	*	*	*	*	*	*	*
=73-	=73-	=73-	=73-	=73-	=73-	=73-	=73-	=73-	=73-
.	.	1c	Pa-	2A/	Pa-	2rf	.	4cc\	.
.	.	.	.	.	.	.	.	4dd\	.
2E\	-ri-	.	.	2G/	-tri	2g\	Pa-	2ee\	.
2F\	-a	1c,<	-tri	1A	Fi-	1f	-tri	2cc,<\	.
2F\	Pa-	.	.	.	.	.	.	1cc\	Pa-
=74-	=74-	=74-	=74-	=74-	=74-	=74-	=74-	=74-	=74-
2.C/	-tri	1c	et	4G/	.	2.e\	et	.	.
.	.	.	.	4F/	.	.	.	.	.
.	.	.	.	4E/	.	.	.	1g\	-tri
4D\	.	.	.	4D/	.	4f\	.	.	.
!	!	!	!	!	!	!LO:PB:g=original	!	!	!
2E\	.	1c	Fi-	2C/	.	2g,<\	.	.	.
2.F\	et	.	.	4c\	.	2f\	Fi-	2.a\	et
.	.	.	.	4B\	.	.	.	.	.
=75-	=75-	=75-	=75-	=75-	=75-	=75-	=75-	=75-	=75-
.	.	1c	-li-	4A/	.	2.e\	-li-	.	.
4G\	.	.	.	4G/	.	.	.	4b\	.
2.A\	fi-	.	.	2.F/	.	.	.	2.cc\	Fi-
.	.	.	.	.	.	4e\	-o	.	.
.	.	1c	-o	.	.	2c/	et	.	.
4G\	.	.	.	4G/	.	.	.	4b\	.
4F\	.	.	.	2.A/	.	1f\	Fi-	4a\	.
4E\	.	.	.	.	.	.	.	4g\	.
=76-	=76-	=76-	=76-	=76-	=76-	=76-	=76-	=76-	=76-
2F\	.	1c	et	.	.	.	.	1a	-li-
.	.	.	.	4B\	.	.	.	.	.
2F\	-li-	.	.	2.c\	.	2f\	-li-	.	.
1C	-o	1c	Spi-	.	.	1e	-o	1g	-o
.	.	.	.	4B\	.	.	.	.	.
.	.	.	.	2G/	.	.	.	.	.
=77-	=77-	=77-	=77-	=77-	=77-	=77-	=77-	=77-	=77-
*	*	*lig	*	*	*	*	*	*	*
2rC	.	1c	-ri-	2A/	-li-	2r	.	2.e/	et
2C/	et	.	.	2G/	-o	2e\	et	.	.
.	.	.	.	.	.	.	.	4f/	.
1G	Spi-	1B	.	0rF	.	2.d\	Spi-	4g\	.
.	.	.	.	.	.	.	.	4a\	.
.	.	.	.	.	.	.	.	4b\	.
.	.	.	.	.	.	4e\	-ri-	4g\	.
*	*	*Xlig	*	*	*	*	*	*	*
=78-	=78-	=78-	=78-	=78-	=78-	=78-	=78-	=78-	=78-
*	*	*lig	*	*	*	*	*	*	*
2F\	-ri-	1c	-tu-	.	.	1f	-tu-	4a\	.
.	.	.	.	.	.	.	.	4b\	.
2A\	-tu-	.	.	.	.	.	.	2cc\	Spi-
1G	-i	1d	.	2rF	.	2g\	-i	2b\	-ri-
.	.	.	.	2G/	et	2d\	San-	1dd\	-tu-
*	*	*Xlig	*	*	*	*	*	*	*
=79-	=79-	=79-	=79-	=79-	=79-	=79-	=79-	=79-	=79-
!LO:SIC:s=2.D	!	!	!	!	!	!	!	!	!
2.C/	San-	1d	-i	2A/	Spi-	1.f	.	.	.
.	.	.	.	2A/	-ri-	.	.	2.a\	-i
!LO:SIC:s=4E	!	!	!	!	!	!	!	!	!
4D/	.	.	.	.	.	.	.	.	.
*	*	*lig	*	*	*	*	*	*	*
!	!	!	!	!LO:PB:g=original	!	!	!	!	!
2F\	.	1c	San-	2A/	-tu-	.	.	.	.
.	.	.	.	.	.	.	.	4b\	.
!	!	!	!	!	!	!	!	!LO:PB:g=original	!
2C/	.	.	.	2.G/	-i	4e\	.	2.cc\	San-
.	.	.	.	.	.	4f\	.	.	.
=80-	=80-	=80-	=80-	=80-	=80-	=80-	=80-	=80-	=80-
1G	.	1d	.	.	.	1g	.	.	.
.	.	.	.	4A/	.	.	.	8b\L	.
.	.	.	.	.	.	.	.	8a\J	.
.	.	.	.	2B\	San-	.	.	2b\	.
*	*	*Xlig	*	*	*	*	*	*	*
1C	-cto	1c	-cto	1G	.	1e	-cto	1cc	-cto
=81-	=81-	=81-	=81-	=81-	=81-	=81-	=81-	=81-	=81-
*	*	*lig	*	*	*	*	*	*	*
1rC	.	1c	Si-	2.A\	-cto	1e	Si-	2rcc	.
.	.	.	.	.	.	.	.	1cc	Si-
.	.	.	.	4B\	.	.	.	.	.
*lig	*	*	*	*	*	*	*	*	*
1F	Sunt	1A	.	2c\	Si-	1c	-cut	.	.
.	.	.	.	2c\	-cut	.	.	1a\	-cut
*	*	*Xlig	*	*	*	*	*	*	*
=82-	=82-	=82-	=82-	=82-	=82-	=82-	=82-	=82-	=82-
*	*	*lig	*	*	*	*	*	*	*
1D	.	1A	-cut	1F	.	1d	e-	.	.
.	.	.	.	.	.	.	.	4g/	.
.	.	.	.	.	.	.	.	4f/	.
*Xlig	*	*	*	*	*	*	*	*	*
2.C/	e-	1c	.	4G/	er-	1G	-rat	2.e/	e-
.	.	.	.	4F/	.	.	.	.	.
.	.	.	.	4E/	.	.	.	.	.
4D\	.	.	.	4D/	.	.	.	4f/	.
*	*	*Xlig	*	*	*	*	*	*	*
=83-	=83-	=83-	=83-	=83-	=83-	=83-	=83-	=83-	=83-
2E\	.	1c	e-	2C/	-at	2c/	in	2g/	-rat
1F	.	.	.	4c\	e-	4A/	prin-	2.a\	e-
.	.	.	.	4B\	.	4B/	.	.	.
.	.	1c	-rat	2A/	.	4c/	.	.	.
.	.	.	.	.	.	4d/	.	4b\	.
4E\	.	.	.	4G/	.	4e\	.	4cc\	.
4D\	.	.	.	4F/	.	4f\	.	4dd\	.
!LO:LB:g=original	!	!	!	!	!	!	!	!	!
=84-	=84-	=84-	=84-	=84-	=84-	=84-	=84-	=84-	=84-
1C	-rat	1c	in	2E/	.	2g\	-ci-	2.ee\	.
.	.	.	.	2G/	.	2g\	-pi-	.	.
.	.	.	.	.	.	.	.	4dd\	.
!	!	!LO:LB:g=original	!	!	!	!	!	!	!
2r	.	1c	prin-	1A	-rat	2e\	-o	4cc\	.
.	.	.	.	.	.	.	.	4b\	.
!	!	!	!	!	!	!LO:LB:g=original	!	!	!
1F\	in	.	.	.	.	1f\	et	2a\	-rat
=85-	=85-	=85-	=85-	=85-	=85-	=85-	=85-	=85-	=85-
.	.	1c	-ci-	2rF	.	.	.	2.cc\	in-
2E\	prin-	.	.	2G/	in	2g\	Nunc	.	.
.	.	.	.	.	.	.	.	4b\	.
2F\	-ci-	1c	-pi-	2.A\	prin-	2f\	et	2a\	.
2F\	-pi-	.	.	.	.	2f\	Sem-	2a\	-prin-
.	.	.	.	4B\	.	.	.	.	.
=86-	=86-	=86-	=86-	=86-	=86-	=86-	=86-	=86-	=86-
1C,<	-o	1c	-o	2c\	-ci-	1e	.	2.g\	-ci-
!	!	!	!	!LO:N:vis=2.	!	!	!	!	!
.	.	.	.	[[y2G/	-pi-	.	.	.	.
.	.	.	.	.	.	.	.	4a\	.
*	*	*lig	*	*	*	*	*	*	*
!LO:TX:t=P:problem=niepotrzebny dźwięk w T	!	!LO:TX:t=P::problem=niepotrzebny dźwięk&colon;zła wersja mediany wpisana przez skryptora	!	!LO:TX:t=P:problem=niepotrzebny dźwięk w T	!	!LO:TX:t=P:problem=niepotrzebny dźwięk w T	!	!LO:TX:t=P:problem=niepotrzebny dźwięk w T	!
1ryy	.	1c	et	1ryy	.	1ryy	.	1ryy	.
2GG/	et	1B	.	4G/]]yy	.	1d	-per	4b\	.
.	.	.	.	4F/	-o	.	.	4cc\	.
2BB/	nunc	.	.	2D/	et	.	.	2dd\	-pi-
*	*	*Xlig	*	*	*	*	*	*	*
=87-	=87-	=87-	=87-	=87-	=87-	=87-	=87-	=87-	=87-
*	*	*lig	*	*	*	*	*	*	*
1AA	et	1c	nunc	1E	nunc	2r	.	2a\	-o
!	!	!	!	!	!	!	!	!LO:LB:g=original	!
.	.	.	.	.	.	2c/	et	1cc	et
0GG	Sem-	1d	.	0G	et	0g	Sem-	.	.
.	.	.	.	.	.	.	.	4b\	.
.	.	.	.	.	.	.	.	4a\	.
*	*	*Xlig	*	*	*	*	*	*	*
=88-	=88-	=88-	=88-	=88-	=88-	=88-	=88-	=88-	=88-
.	.	1d	et	.	.	.	.	1b	nunc
*	*	*lig	*	*	*	*	*	*	*
!LO:TX:t=P:problem=niepotrzebne dźwięki w T	!	!LO:TX:t=P::problem=niepotrzebne dźwięki&colon;zła wersja mediany wpisana przez skryptora	!	!LO:TX:t=P:problem=niepotrzebne dźwięki w T	!	!LO:TX:t=P:problem=niepotrzebne dźwięki w T	!	!LO:TX:t=P:problem=niepotrzebne dźwięki w T	!
1ryy	.	1c	Sem-	1ryy	.	1ryy	.	1ryy	.
=89-	=89-	=89-	=89-	=89-	=89-	=89-	=89-	=89-	=89-
1ryy	.	1d	.	1ryy	.	1ryy	.	1ryy	.
*	*	*Xlig	*	*	*	*	*	*	*
1C	-per	1c	-per	2G/	Sem-	1.e	-per	2cc\	.
.	.	.	.	2G/	-per	.	.	1cc\	et
!	!	!	!	!LO:LB:g=original	!	!	!	!	!
=90-	=90-	=90-	=90-	=90-	=90-	=90-	=90-	=90-	=90-
*	*	*lig	*	*	*	*	*	*	*
2rC	.	1c	et	1A	et	.	.	.	.
*lig	*	*	*	*	*	*	*	*	*
1F	et	.	.	.	.	2f\	et	1a	Sem-
.	.	1A	.	2F/	in	2c/	in	.	.
1D\	.	.	.	1F/	Sae-	1d\	Sae-	2a\	-per
*Xlig	*	*Xlig	*	*	*	*	*	*	*
=91-	=91-	=91-	=91-	=91-	=91-	=91-	=91-	=91-	=91-
*	*	*lig	*	*	*	*	*	*	*
.	.	1A	.	.	.	.	.	2dd\	et
2D/	in	.	.	2F/	-cu-	2d\	-cu-	2dd\	in
1.C	Sae-	1c	.	1G	-la	1e	-la	2g/	Sae-
.	.	.	.	.	.	.	.	2g/	-cu-
*	*	*Xlig	*	*	*	*	*	*	*
=92-	=92-	=92-	=92-	=92-	=92-	=92-	=92-	=92-	=92-
.	.	1c	Sae-	2rF	.	2r	.	2g/	-la
2C/	-cu-	.	.	1E	Sae-	2e\	Sae-	2g/	Sae-
2AA/	-la	1c	-cu-	.	.	2.e\	-cu-	1.a	-cu-
1AA/	Sae-	.	.	2E/	-cu-	.	.	.	.
.	.	.	.	.	.	4d\	.	.	.
=93-	=93-	=93-	=93-	=93-	=93-	=93-	=93-	=93-	=93-
.	.	1c	-la	1E	-lo-	4c/	.	.	.
.	.	.	.	.	.	4B/	.	.	.
2.C/	-cu-	.	.	.	.	2.A/	.	4g/	-lo-
.	.	.	.	.	.	.	.	4f/	.
.	.	1c	Sae-	2E/	-rum	.	.	1.e	-rum
4BB/	.	.	.	.	.	4G/	.	.	.
4AA/	-lo-	.	.	2C/	a-	1G/	lo-	.	.
4GG/	.	.	.	.	.	.	.	.	.
=94-	=94-	=94-	=94-	=94-	=94-	=94-	=94-	=94-	=94-
*	*	*lig	*	*	*	*	*	*	*
1AA	.	1c	-cu-	2C/	-men	.	.	.	.
.	.	.	.	2D/	.	2F/	-rum	2a\	Sae-
*	*	*	*	*	*ij	*	*	*	*
1GG	-rum	1B	.	1d	a-	2.G/	.	2b\	cu-
.	.	.	.	.	.	.	.	2.dd\	-lo-
.	.	.	.	.	.	4A/	.	.	.
*	*	*Xlig	*	*	*	*	*	*	*
=95-	=95-	=95-	=95-	=95-	=95-	=95-	=95-	=95-	=95-
*	*	*lig	*	*	*	*	*	*	*
2rC	.	1G	-lo-	1B	.	4B/	.	.	.
.	.	.	.	.	.	4c/	.	4cc\	.
2G\	a-	.	.	.	.	4d\	.	2b\	-rum
.	.	.	.	.	.	4e\	.	.	.
1.F	-men	1A	.	1c	.	1.f	.	2a\	.
.	.	.	.	.	.	.	.	2.cc\	A-
*	*	*Xlig	*	*	*	*	*	*	*
=96-	=96-	=96-	=96-	=96-	=96-	=96-	=96-	=96-	=96-
*	*ij	*lig	*	*	*	*	*	*	*
.	.	1c	-rum	1A	.	.	.	.	.
.	.	.	.	.	.	.	.	4b\	.
2F\	a-	.	.	.	.	2f\	A-	2.a\	.
1G	.	1B	.	2B\	-men	0d	-men	.	.
.	.	.	.	.	.	.	.	4g\	.
.	.	.	.	2G/	.	.	.	1g\	.
*	*	*Xlig	*	*	*Xij	*	*	*	*
=97-	=97-	=97-	=97-	=97-	=97-	=97-	=97-	=97-	=97-
0D	.	0A	A-	2r	.	.	.	.	.
.	.	.	.	2.d\	A-	.	.	4f/	.
.	.	.	.	.	.	.	.	4e/	.
!	!	!	!	!	!	!LO:LB:g=original	!	!	!
.	.	.	.	.	.	2r	.	1f	.
.	.	.	.	4c\	.	.	.	.	.
.	.	.	.	2A\	.	2d\	A-	.	.
=98-	=98-	=98-	=98-	=98-	=98-	=98-	=98-	=98-	=98-
0GGl;;	-men	0Gl;;	-men	0Bl	-men	0dl;;	-men	0gl;;	-men
*	*Xij	*	*	*	*	*	*	*	*
==	==	==	==	==	==	==	==	==	==
*-	*-	*-	*-	*-	*-	*-	*-	*-	*-
!!!system-decoration: [g1]
!!!RDF**kern: > = above
!!!RDF**kern: < = below
!!!RDF**kern: l = terminal long
!!!ENC: Andrzej Kubiczek
!!!END: 2021-04-01
!!!ENC: Berenika Jozajtis
!!!END: 2021-03-22
